src/img/svg/logo-bank/3.svg

<svg width="118" height="32" viewBox="0 0 118 32" fill="none" xmlns="http://www.w3.org/2000/svg"><g clip-path="url(#a)"><path d="m113.158 8.651-3.998 4.48v-4.48h-2.893v11.31h2.893V15.2l4.28 4.762h3.737l-5.263-5.926 4.882-5.385h-3.638Zm-11.992 4.219h-3.999V8.65h-2.894v11.31h2.894v-4.459h3.999v4.46h2.893V8.652h-2.893v4.218ZM17.18 14.775c-.07 2.11-.342 2.532-1.528 2.532v2.655h.442c2.957 0 3.668-1.526 3.778-4.921l.12-3.759h2.773v8.685h2.895V8.65h-8.28l-.2 6.125Zm15.67-2.689h-2.09V8.651h-2.895v11.31h5.024c3.154 0 4.28-2.048 4.28-3.976 0-2.492-1.568-3.899-4.319-3.899Zm-.223 5.385h-1.868v-2.873h1.87c1.004 0 1.608.443 1.608 1.387 0 1.024-.584 1.486-1.61 1.486Zm13.966-9.082v-4.2h-2.895v4.2c-3.313.275-5.544 2.633-5.544 5.904s2.23 5.646 5.545 5.928v4.26h2.895v-4.257c3.315-.262 5.546-2.633 5.546-5.931 0-3.299-2.231-5.645-5.547-5.907v.003Zm-2.895 9.1c-1.608-.223-2.612-1.427-2.612-3.196 0-1.77 1.005-2.974 2.612-3.194v6.39Zm2.895 0v-6.387c1.608.22 2.62 1.422 2.62 3.19 0 1.77-1.004 2.975-2.612 3.196m16.388-1.002v-3.801c0-2.773-1.77-4.521-4.741-4.521-3.075 0-4.703 1.848-4.843 3.778h2.934c.1-.423.542-1.147 1.909-1.147 1.126 0 1.848.523 1.848 1.89h-2.874c-2.574 0-4.098 1.346-4.098 3.596 0 2.354 1.67 3.962 4.078 3.962 1.77 0 2.747-.834 3.175-1.466.381.764 1.225 1.185 2.33 1.185h1.006v-2.613c-.523 0-.724-.241-.724-.863Zm-2.895-.744c0 1.306-.925 2.049-2.13 2.049-1.045 0-1.868-.381-1.868-1.507s.904-1.287 1.687-1.287h2.311v.745Zm12.057-5.484V7.064h7.495V4.19H69.117v15.772h6.272c3.475 0 5.468-1.727 5.468-4.902 0-2.993-1.99-4.802-5.468-4.802h-3.238Zm3.098 6.85H72.15v-4.102h3.094c1.609 0 2.512.743 2.512 2.05 0 1.345-.903 2.048-2.512 2.048m16.679-.618v-3.801c0-2.773-1.77-4.521-4.743-4.521-3.068.005-4.7 1.853-4.837 3.782h2.933c.101-.423.544-1.146 1.909-1.146 1.126 0 1.85.522 1.85 1.89h-2.88c-2.573 0-4.099 1.346-4.099 3.595 0 2.35 1.671 3.958 4.08 3.958 1.77 0 2.746-.834 3.174-1.466.382.764 1.227 1.185 2.331 1.185h1.004v-2.613c-.521 0-.722-.241-.722-.863Zm-2.895-.744c0 1.306-.925 2.049-2.13 2.049-1.045 0-1.87-.381-1.87-1.507s.906-1.287 1.689-1.287h2.311v.745Zm-73.557 9.043H0V28h15.471v-3.215ZM10.549 6.354C10.106 5.04 9.599 4 7.856 4 6.115 4 5.573 5.036 5.11 6.354L.322 19.962h3.174l1.105-3.234h6.112l1.027 3.234h3.378L10.549 6.354Zm-5.023 7.641 2.17-6.457h.08l2.049 6.457H5.526Z" fill="#EF3124"/></g><defs><clipPath id="a"><path fill="#fff" d="M0 0h118v32H0z"/></clipPath></defs></svg>

<svg width="118" height="32" viewBox="0 0 118 32" fill="none" xmlns="http://www.w3.org/2000/svg">
<g clip-path="url(#clip0_34_3205)">
<path d="M113.158 8.651L109.16 13.131V8.651H106.267V19.961H109.16V15.2L113.44 19.962H117.177L111.914 14.036L116.796 8.651H113.158ZM101.166 12.87H97.167V8.65H94.273V19.96H97.167V15.501H101.166V19.961H104.059V8.652H101.166V12.87ZM17.18 14.775C17.11 16.885 16.838 17.307 15.652 17.307V19.962H16.094C19.051 19.962 19.762 18.436 19.872 15.041L19.992 11.282H22.765V19.967H25.66V8.65H17.38L17.18 14.775ZM32.85 12.086H30.76V8.651H27.865V19.961H32.889C36.043 19.961 37.169 17.913 37.169 15.985C37.169 13.493 35.601 12.086 32.85 12.086ZM32.627 17.471H30.759V14.598H32.629C33.633 14.598 34.237 15.041 34.237 15.985C34.237 17.009 33.653 17.471 32.627 17.471ZM46.593 8.389V4.189H43.698V8.389C40.385 8.664 38.154 11.022 38.154 14.293C38.154 17.564 40.384 19.939 43.699 20.221V24.481H46.594V20.224C49.909 19.962 52.14 17.591 52.14 14.293C52.14 10.994 49.909 8.648 46.593 8.386V8.389ZM43.698 17.489C42.09 17.266 41.086 16.062 41.086 14.293C41.086 12.523 42.091 11.319 43.698 11.099V17.489ZM46.593 17.489V11.102C48.201 11.322 49.213 12.524 49.213 14.292C49.213 16.062 48.209 17.267 46.601 17.488M62.989 16.486V12.685C62.989 9.912 61.219 8.164 58.248 8.164C55.173 8.164 53.545 10.012 53.405 11.942H56.339C56.439 11.519 56.881 10.795 58.248 10.795C59.374 10.795 60.096 11.318 60.096 12.685H57.222C54.648 12.685 53.124 14.031 53.124 16.281C53.124 18.635 54.794 20.243 57.202 20.243C58.972 20.243 59.949 19.409 60.377 18.777C60.758 19.541 61.602 19.962 62.707 19.962H63.713V17.349C63.19 17.349 62.989 17.108 62.989 16.486ZM60.094 15.742C60.094 17.048 59.169 17.791 57.964 17.791C56.919 17.791 56.096 17.41 56.096 16.284C56.096 15.158 57 14.997 57.783 14.997H60.094V15.742ZM72.151 10.258V7.064H79.646V4.19H69.117V19.962H75.389C78.864 19.962 80.857 18.235 80.857 15.06C80.857 12.067 78.867 10.258 75.389 10.258H72.151ZM75.249 17.108H72.15V13.006H75.244C76.853 13.006 77.756 13.749 77.756 15.056C77.756 16.401 76.853 17.104 75.244 17.104M91.923 16.486V12.685C91.923 9.912 90.153 8.164 87.18 8.164C84.112 8.169 82.48 10.017 82.343 11.946H85.276C85.377 11.523 85.82 10.8 87.185 10.8C88.311 10.8 89.035 11.322 89.035 12.69H86.155C83.582 12.69 82.056 14.036 82.056 16.285C82.056 18.635 83.727 20.243 86.136 20.243C87.906 20.243 88.882 19.409 89.31 18.777C89.692 19.541 90.537 19.962 91.641 19.962H92.645V17.349C92.124 17.349 91.923 17.108 91.923 16.486ZM89.028 15.742C89.028 17.048 88.103 17.791 86.898 17.791C85.853 17.791 85.028 17.41 85.028 16.284C85.028 15.158 85.934 14.997 86.717 14.997H89.028V15.742ZM15.471 24.785H0V28H15.471V24.785ZM10.549 6.354C10.106 5.04 9.599 4 7.856 4C6.115 4 5.573 5.036 5.11 6.354L0.322 19.962H3.496L4.601 16.728H10.713L11.74 19.962H15.118L10.549 6.354ZM5.526 13.995L7.696 7.538H7.776L9.825 13.995H5.526Z" fill="#EF3124"/>
</g>
<defs>
<clipPath id="clip0_34_3205">
<rect width="118" height="32" fill="white"/>
</clipPath>
</defs>
</svg>
